X: 39
T: The HEN AND CHICKENS
%R: hornpipe
B: Jean White "100 Popular Hornpipes, Reels, Jigs and Country Dances", Boston 1880 p.17
F: http://www.loc.gov/resource/sm1880.09124.0#seq-1
Z: 2014 John Chambers <jc:trillian.mit.edu>
M: C|
L: 1/8
K: Bb
% - - - - - - - - - - - - - - - - - - - - - - - - - - - - -
|:\
B>FD>F EFCE | DFcd cAFD |\
EGcE DFBd | (3edc (3dcB (3BcB A2 |
BFDF EFCE | DFBd cAFD |\
Egfe dABG | (3FGF (3DcA B2B,2 :|
|:\
fdcB fdcB | b2ab ^f2g2 |\
gfed cBcd | eefg (3BcB A2 |
BFDF EFCE | DFBd cAFD |\
Egfe dABG | (3FGE (3DEC B,2B2 H:|
% - - - - - - - - - - - - - - - - - - - - - - - - - - - - -

%%sep 1 1 500
%%sep 1 1 500
